X: 2322
T: ORANGE AND BLUE
R: Jig.
%R: jig
B: James Kerr "Merry Melodies" v.2 p.35 #322
Z: 2016 John Chambers <jc:trillian.mit.edu>
M: 6/8
L: 1/8
K: A
ue |\
uc2uA AGA | vE2vA uC2uA | vc2vA cec | A3 uA2uc |\
d2B B^AB | F2B B2A | G2E GBG | E3 E2d |\
c2A AGA | E2A C2A | c2A cec |
A3 A2ue |\
vf2vd ue2uc | d2B c2A | GBG EFG | A3 A2 |]\
ue |\
c2e- efe | c2e- efe | c2A cec | A3 A2c |\
d2f- faf | d2f- faf |
d2B dfd | B3 B2d |\
c2e- efe | c2e- efe | c2A cec | A3 A2ue |\
fdf ece | dBd cAc | GBG EFG | A3 A2 |]
